src/symbolic/categories/emoji-activity-symbolic.svg

<?xml version="1.0" encoding="UTF-8" standalone="no"?>
<svg
   xmlns:dc="http://purl.org/dc/elements/1.1/"
   xmlns:cc="http://creativecommons.org/ns#"
   xmlns:rdf="http://www.w3.org/1999/02/22-rdf-syntax-ns#"
   xmlns:svg="http://www.w3.org/2000/svg"
   xmlns="http://www.w3.org/2000/svg"
   id="svg6"
   version="1.1"
   width="16"
   height="16">
  <metadata
     id="metadata12">
    <rdf:RDF>
      <cc:Work
         rdf:about="">
        <dc:format>image/svg+xml</dc:format>
        <dc:type
           rdf:resource="http://purl.org/dc/dcmitype/StillImage" />
        <dc:title></dc:title>
      </cc:Work>
    </rdf:RDF>
  </metadata>
  <defs
     id="defs10" />
  <path
     id="path2"
     d="M 8 0 C 3.588 0 0 3.588 0 8 C 0 12.412 3.588 16 8 16 C 12.412 16 16 12.412 16 8 C 16 3.588 12.412 0 8 0 z M 8 1 C 8.0230882 1 8.0453246 1.0036843 8.0683594 1.0039062 C 8.407536 1.0071741 8.7385801 1.0401818 9.0644531 1.0898438 C 12.42797 1.6024328 15 4.4910513 15 8 C 15 8.3092675 14.974243 8.6115965 14.935547 8.9101562 C 14.582204 8.856308 14.240059 8.7702714 13.90625 8.6660156 L 14.265625 7.7363281 L 13.333984 7.375 L 12.974609 8.3007812 C 12.173423 7.9172437 11.459618 7.3857788 10.863281 6.7421875 L 11.626953 6.1269531 L 11 5.3496094 L 10.236328 5.9648438 C 9.7428343 5.250386 9.3834021 4.4391673 9.1835938 3.5644531 L 10.146484 3.4160156 L 9.9941406 2.4277344 L 9.0253906 2.578125 C 9.0098208 2.3873231 9 2.1949317 9 2 C 9 1.6907325 9.0257567 1.3884035 9.0644531 1.0898438 C 8.7385801 1.0401818 8.407536 1.0071742 8.0683594 1.0039062 C 8.0274672 1.3310662 8 1.6619198 8 2 C 8 2.2461493 8.0113264 2.4899934 8.0332031 2.7304688 L 7.0292969 2.8867188 L 7.1816406 3.875 L 8.1933594 3.71875 C 8.424691 4.7683021 8.8587443 5.7414649 9.4589844 6.5917969 L 8.6640625 7.2304688 L 9.2910156 8.0078125 L 10.085938 7.3671875 C 10.79379 8.1441044 11.650318 8.7829508 12.613281 9.234375 L 12.25 10.171875 L 13.181641 10.533203 L 13.544922 9.5976562 C 13.930653 9.7224121 14.325717 9.8252781 14.734375 9.890625 C 14.822262 9.576018 14.89008 9.2528317 14.933594 8.921875 C 14.890121 9.2528784 14.82227 9.5759891 14.734375 9.890625 C 13.910506 12.839823 11.21559 15 8 15 C 7.9432986 15 7.8884061 14.993522 7.8320312 14.992188 C 7.9016504 14.433164 7.8970549 13.858899 7.8457031 13.279297 L 8.8691406 13.121094 L 8.7148438 12.132812 L 7.7070312 12.289062 C 7.4739143 11.228566 7.0325453 10.263063 6.4375 9.4199219 L 7.234375 8.7792969 L 6.6074219 8 L 5.8027344 8.6464844 C 5.0905421 7.8666195 4.2355352 7.235642 3.2792969 6.7871094 L 3.6484375 5.8359375 L 2.7148438 5.4746094 L 2.3535156 6.4101562 C 1.9969433 6.2944599 1.6334391 6.1957757 1.2597656 6.1308594 C 1.1722337 6.4481015 1.1049004 6.7736709 1.0625 7.1074219 C 1.3802443 7.1607234 1.6885724 7.2446414 1.9921875 7.3398438 L 1.6308594 8.2714844 L 2.5644531 8.6328125 L 2.921875 7.7089844 C 3.7179148 8.0907235 4.4293378 8.6218927 5.0292969 9.2695312 L 4.2695312 9.8808594 L 4.8964844 10.660156 L 5.6582031 10.046875 C 6.1458783 10.754487 6.4972103 11.563824 6.6992188 12.445312 L 5.75 12.59375 L 5.9042969 13.582031 L 6.8574219 13.433594 C 6.8965762 13.928764 6.8983455 14.419759 6.8378906 14.896484 C 3.522258 14.34335 1 11.475034 1 8 C 1 7.6968104 1.0252867 7.4003434 1.0625 7.1074219 C 1.1049004 6.7736709 1.1722337 6.4481015 1.2597656 6.1308594 C 2.0765165 3.1707069 4.7766398 1 8 1 z M 6.8457031 14.896484 C 7.1647714 14.94938 7.4900243 14.98384 7.8222656 14.992188 C 7.4899861 14.983868 7.1648042 14.949358 6.8457031 14.896484 z "
     style="color:#bebebe;marker:none;font-variation-settings:normal;opacity:1;vector-effect:none;fill:#666666;fill-opacity:1;stroke-width:1;stroke-linecap:butt;stroke-linejoin:miter;stroke-miterlimit:4;stroke-dasharray:none;stroke-dashoffset:0;stroke-opacity:1" />
</svg>

<svg xmlns="http://www.w3.org/2000/svg" width="16" height="16"><path d="M8 0C3.588 0 0 3.588 0 8s3.588 8 8 8 8-3.588 8-8-3.588-8-8-8zm0 1c.023 0 .045.004.068.004.34.003.67.036.996.086A6.986 6.986 0 0 1 15 8c0 .31-.026.612-.064.91a6.975 6.975 0 0 1-1.03-.244l.36-.93-.932-.361-.36.926a7 7 0 0 1-2.11-1.559l.763-.615L11 5.35l-.764.615a6.932 6.932 0 0 1-1.052-2.4l.962-.149-.152-.988-.969.15A7.096 7.096 0 0 1 9 2c0-.31.026-.612.064-.91a7.043 7.043 0 0 0-.996-.086C8.028 1.33 8 1.662 8 2c0 .246.011.49.033.73l-1.004.157.153.988 1.011-.156A7.94 7.94 0 0 0 9.46 6.592l-.795.638.627.778.795-.64a8.04 8.04 0 0 0 2.527 1.866l-.363.938.932.361.363-.935c.386.124.78.227 1.19.293A6.987 6.987 0 0 1 8 15c-.057 0-.112-.006-.168-.008.07-.559.065-1.133.014-1.713l1.023-.158-.154-.988-1.008.156a7.91 7.91 0 0 0-1.27-2.87l.797-.64L6.607 8l-.804.646a8.036 8.036 0 0 0-2.524-1.859l.37-.951-.934-.361-.361.935a7.96 7.96 0 0 0-1.094-.28 6.973 6.973 0 0 0-.198.977c.318.054.627.138.93.233l-.361.931.933.362.358-.924a7 7 0 0 1 2.107 1.56l-.76.612.627.78.762-.614A6.94 6.94 0 0 1 6.7 12.445l-.949.149.154.988.953-.148c.04.495.041.986-.02 1.462A6.987 6.987 0 0 1 1 8c0-.303.025-.6.063-.893A6.987 6.987 0 0 1 8 1zM6.846 14.896z" style="marker:none;font-variation-settings:normal" color="#bebebe" fill="#5d656b"/></svg>
